dist/assets/images/icons/pdf.svg

<svg width="32" height="32" viewBox="0 0 32 32" fill="none" xmlns="http://www.w3.org/2000/svg">
<path d="M26 31.5H6C4.6215 31.5 3.5 30.3785 3.5 29V3C3.5 1.6215 4.6215 0.5 6 0.5H16.1717C16.8395 0.5 17.4675 0.76025 17.9393 1.23225L27.7677 11.0608C28.24 11.533 28.5 12.1605 28.5 12.8282V29C28.5 30.3785 27.3785 31.5 26 31.5ZM6 1.5C5.17275 1.5 4.5 2.17275 4.5 3V29C4.5 29.8272 5.17275 30.5 6 30.5H26C26.8272 30.5 27.5 29.8272 27.5 29V12.8282C27.5 12.4335 27.3397 12.047 27.0607 11.7677L17.2323 1.93925C16.949 1.656 16.5722 1.5 16.1717 1.5H6Z" fill="#FD4233"/>
<path d="M23.802 20.08C23.7845 19.9525 23.682 19.7925 23.572 19.685C23.257 19.375 22.5645 19.2125 21.5095 19.1975C20.7945 19.19 19.9345 19.2525 19.0295 19.38C18.6245 19.1475 18.207 18.8925 17.8795 18.585C16.997 17.7625 16.262 16.62 15.802 15.3625C15.832 15.245 15.857 15.1425 15.882 15.0375C15.882 15.0375 16.377 12.2175 16.247 11.2625C16.2295 11.1325 16.217 11.095 16.182 10.9925L16.1395 10.8825C16.0045 10.57 15.7395 10.24 15.3245 10.2575L15.0795 10.25H15.0745C14.6095 10.25 14.2345 10.4875 14.1345 10.84C13.8345 11.95 14.1445 13.6125 14.707 15.7625L14.562 16.1125C14.1595 17.0975 13.6545 18.0875 13.2095 18.96L13.152 19.0725C12.682 19.99 12.257 20.77 11.8695 21.43L11.472 21.64C11.442 21.655 10.7595 22.0175 10.5995 22.1125C9.24205 22.925 8.34205 23.845 8.19205 24.575C8.14455 24.81 8.17955 25.1075 8.42205 25.245L8.80705 25.44C8.97455 25.5225 9.15205 25.565 9.33205 25.565C10.2995 25.565 11.422 24.36 12.9695 21.66C14.7545 21.08 16.7895 20.595 18.572 20.33C19.9295 21.0925 21.5995 21.625 22.6545 21.625C22.842 21.625 23.0045 21.6075 23.1345 21.5725C23.337 21.5175 23.507 21.4025 23.612 21.2475C23.817 20.94 23.857 20.515 23.802 20.08ZM9.12205 24.8325C9.29705 24.35 9.99705 23.395 11.0295 22.55C11.0945 22.4975 11.2545 22.3475 11.3995 22.2075C10.3195 23.93 9.59705 24.615 9.12205 24.8325ZM15.237 10.75C15.547 10.75 15.7245 11.5325 15.7395 12.2675C15.7545 13.0025 15.582 13.5175 15.3695 13.9C15.192 13.335 15.107 12.445 15.107 11.8625C15.107 11.8625 15.0945 10.75 15.237 10.75ZM13.412 20.785C13.6295 20.3975 13.8545 19.9875 14.0845 19.555C14.647 18.4925 15.002 17.6625 15.2645 16.98C15.7895 17.935 16.4445 18.7475 17.212 19.3975C17.3095 19.4775 17.412 19.56 17.517 19.6425C15.9545 19.95 14.602 20.3275 13.412 20.785ZM23.2695 20.6975C23.1745 20.755 22.902 20.79 22.727 20.79C22.162 20.79 21.4595 20.5325 20.477 20.11C20.8545 20.0825 21.202 20.0675 21.512 20.0675C22.0795 20.0675 22.247 20.065 22.8045 20.2075C23.3595 20.35 23.367 20.6375 23.2695 20.6975Z" fill="#FF402F"/>
</svg>

<svg width="32" height="32" fill="none" xmlns="http://www.w3.org/2000/svg"><path d="M26 31.5H6A2.503 2.503 0 013.5 29V3C3.5 1.621 4.622.5 6 .5h10.172c.668 0 1.296.26 1.767.732l9.829 9.829c.472.472.732 1.1.732 1.767V29c0 1.378-1.122 2.5-2.5 2.5zM6 1.5c-.827 0-1.5.673-1.5 1.5v26c0 .827.673 1.5 1.5 1.5h20c.827 0 1.5-.673 1.5-1.5V12.828c0-.394-.16-.781-.44-1.06l-9.828-9.829a1.49 1.49 0 00-1.06-.439H6z" fill="#FD4233"/><path d="M23.802 20.08c-.017-.127-.12-.287-.23-.395-.315-.31-1.008-.473-2.063-.487a17.04 17.04 0 00-2.48.182c-.404-.232-.822-.488-1.15-.795-.882-.823-1.617-1.965-2.077-3.223.03-.117.055-.22.08-.325 0 0 .495-2.82.365-3.775a1.097 1.097 0 00-.065-.27l-.042-.11c-.136-.312-.4-.642-.816-.624l-.245-.008h-.005c-.464 0-.84.238-.94.59-.3 1.11.01 2.773.573 4.922l-.145.35c-.402.986-.907 1.976-1.352 2.848l-.058.113a47.85 47.85 0 01-1.282 2.357l-.398.21a33.4 33.4 0 00-.872.473c-1.358.812-2.258 1.732-2.408 2.462-.047.235-.012.533.23.67l.385.195c.168.082.345.125.525.125.967 0 2.09-1.205 3.637-3.905a36.184 36.184 0 015.603-1.33c1.358.763 3.027 1.295 4.082 1.295.188 0 .35-.017.48-.052a.834.834 0 00.478-.326c.205-.307.245-.732.19-1.167zm-14.68 4.753c.175-.483.875-1.438 1.908-2.283.065-.053.225-.203.37-.343-1.08 1.723-1.803 2.408-2.278 2.625zm6.115-14.083c.31 0 .488.783.502 1.518.015.734-.157 1.25-.37 1.632-.177-.565-.262-1.455-.262-2.037 0 0-.012-1.113.13-1.113zm-1.825 10.035c.217-.387.442-.797.672-1.23a23.032 23.032 0 001.18-2.575 8.517 8.517 0 001.948 2.418c.098.08.2.162.305.244-1.563.308-2.915.686-4.105 1.143zm9.857-.087c-.095.057-.367.092-.542.092-.565 0-1.268-.258-2.25-.68.378-.027.725-.043 1.035-.043.567 0 .735-.002 1.293.14.555.143.562.43.465.49z" fill="#FF402F"/></svg>
